X:130
U: ~ = !turn!
%%topmargin 3cm
T:Moll Roone
B:Traditional Irish Fiddle Tunes. Randy Miller and Jack Perron.
Z:Transcribed by Ralph Palmer
S:Mary O'Hara
R:Reel
L:1/8
M:C|
K:D
A, | D2 F>D GEDC | D>FAA A2 FA | AGEG GFD>F | GEDC D3 ::
A | A>GFG AdcB | A>GFG A3 d | d2 Bd d(cc)A | cBA^G A=GFE |
D2 F>D GEDC | D>FAA A2 FA | AGEG GFDF | GEDC D3 |]
